svg/fluentui-system-icons/ic_fluent_open_48_filled.svg

<svg width="48" height="48" viewBox="0 0 48 48" fill="none" xmlns="http://www.w3.org/2000/svg">
<path d="M41.4505 6.33966C41.786 6.61475 42 7.03243 42 7.50011V19.5001C42 20.3285 41.3284 21.0001 40.5 21.0001C39.6716 21.0001 39 20.3285 39 19.5001V11.1211L29.5605 20.5606C28.9747 21.1464 28.025 21.1464 27.4392 20.5606C26.8534 19.9748 26.8534 19.0251 27.4392 18.4393L36.8784 9.0001H28.5001C27.6717 9.0001 27.0001 8.32853 27.0001 7.50011C27.0001 6.67168 27.6717 6.00011 28.5001 6.00011H40.4813C40.5467 5.99931 40.6121 6.00276 40.6771 6.01046C40.8099 6.02608 40.9373 6.05903 41.0571 6.10698C41.1967 6.16274 41.3296 6.2403 41.4505 6.33966ZM12.5 9.0001C10.567 9.0001 8.99998 10.5671 8.99998 12.5001V35.5C8.99998 37.433 10.567 39 12.5 39H35.4998C37.4328 39 38.9998 37.433 38.9998 35.5V27.5C38.9998 26.6716 39.6713 26 40.4998 26C41.3282 26 41.9998 26.6716 41.9998 27.5V35.5C41.9998 39.0899 39.0896 42 35.4998 42H12.5C8.91013 42 6 39.0899 6 35.5V12.5001C6 8.91025 8.91013 6.00011 12.5 6.00011H20.4999C21.3283 6.00011 21.9999 6.67168 21.9999 7.50011C21.9999 8.32853 21.3283 9.0001 20.4999 9.0001H12.5Z" fill="#212121"/>
</svg>

<svg xmlns="http://www.w3.org/2000/svg" width="48" height="48"><path d="M41.45 6.34c.336.275.55.692.55 1.16v12a1.5 1.5 0 0 1-3 0v-8.379l-9.44 9.44a1.5 1.5 0 1 1-2.12-2.122L36.877 9H28.5a1.5 1.5 0 0 1 0-3h11.981a1.508 1.508 0 0 1 .97.34ZM12.5 9A3.5 3.5 0 0 0 9 12.5v23a3.5 3.5 0 0 0 3.5 3.5h23a3.5 3.5 0 0 0 3.5-3.5v-8a1.5 1.5 0 1 1 3 0v8a6.5 6.5 0 0 1-6.5 6.5h-23A6.5 6.5 0 0 1 6 35.5v-23A6.5 6.5 0 0 1 12.5 6h8a1.5 1.5 0 0 1 0 3h-8Z"/></svg>
